toolkits/global/packages/global-context/img/icons/image.svg

<svg height="24" viewBox="0 0 24 24" width="24" xmlns="http://www.w3.org/2000/svg"><path d="m13.0046024 3c.5497429 0 1.3179837.32258606 1.707238.71184039l4.5763192 4.57631922c.3931386.39313859.7118404 1.16760135.7118404 1.71431369v8.9889965c0 1.1092806-.8945138 2.0085302-1.9940603 2.0085302h-12.01187942c-1.10128908 0-1.99406028-.8926228-1.99406028-1.9950893v-14.00982141c0-1.10185739.88743329-1.99508929 1.99961498-1.99508929zm-3.49645283 10.1752453-3.89407257 6.7495552c.11705545.048464.24538859.0751995.37998328.0751995h10.60290092l-2.4329715-4.2154691-1.5749413 2.7288098zm8.49779013 6.8247547c.5463747 0 .9940603-.4506622.9940603-1.0085302v-8.9889965c0-.28393445-.2150684-.8033281-.4189472-1.00720691l-4.5763192-4.57631922c-.2038461-.20384606-.718603-.41894717-1.0001312-.41894717h-7.00498742c-.55709576 0-.99961498.44271433-.99961498.99508929v13.98991071l4.50814957-7.8102669 3.08089883 5.3380954 1.5749413-2.7288097 3.5875735 6.2159812zm-3.0059397-11c1.1045695 0 2 .8954305 2 2s-.8954305 2-2 2-2-.8954305-2-2 .8954305-2 2-2zm0 1c-.5522847 0-1 .4477153-1 1s.4477153 1 1 1 1-.4477153 1-1-.4477153-1-1-1z" fill="#666" fill-rule="evenodd"/></svg>

<?xml version="1.0" encoding="UTF-8"?>
<svg width="24px" height="24px" viewBox="0 0 24 24" version="1.1" xmlns="http://www.w3.org/2000/svg" xmlns:xlink="http://www.w3.org/1999/xlink">
    <!-- Generator: Sketch 63.1 (92452) - https://sketch.com -->
    <title>icon-icon / image</title>
    <desc>Created with Sketch.</desc>
    <g id="icon-/-image" stroke="none" stroke-width="1" fill="none" fill-rule="evenodd">
        <path d="M13.0046024,3 C13.5543453,3 14.3225861,3.32258606 14.7118404,3.71184039 L19.2881596,8.28815961 C19.6812982,8.6812982 20,9.45576096 20,10.0024733 L20,18.9914698 C20,20.1007504 19.1054862,21 18.0059397,21 L5.99406028,21 C4.8927712,21 4,20.1073772 4,19.0049107 L4,4.99508929 C4,3.8932319 4.88743329,3 5.99961498,3 L13.0046024,3 Z M9.50814957,13.1752453 L5.614077,19.9248005 C5.73113245,19.9732645 5.85946559,20 5.99406028,20 L16.5969612,20 L14.1639897,15.7845309 L12.5890484,18.5133407 L9.50814957,13.1752453 Z M18.0059397,20 C18.5523144,20 19,19.5493378 19,18.9914698 L19,10.0024733 C19,9.71853885 18.7849316,9.1991452 18.5810528,8.99526639 L14.0047336,4.41894717 C13.8008875,4.21510111 13.2861306,4 13.0046024,4 L5.99961498,4 C5.44251922,4 5,4.44271433 5,4.99508929 L5,18.985 L9.50814957,11.1747331 L12.5890484,16.5128285 L14.1639897,13.7840188 L17.7515632,20 L18.0059397,20 Z M15,9 C16.1045695,9 17,9.8954305 17,11 C17,12.1045695 16.1045695,13 15,13 C13.8954305,13 13,12.1045695 13,11 C13,9.8954305 13.8954305,9 15,9 Z M15,10 C14.4477153,10 14,10.4477153 14,11 C14,11.5522847 14.4477153,12 15,12 C15.5522847,12 16,11.5522847 16,11 C16,10.4477153 15.5522847,10 15,10 Z" id="image" fill="#666666"></path>
    </g>
</svg>
